<?xml version="1.0" encoding="UTF-8"?>
<map version="1.10" tiledversion="1.10.2" orientation="orthogonal" renderorder="right-down" width="22" height="22" tilewidth="128" tileheight="128" infinite="0" nextlayerid="6" nextobjectid="20">
 <tileset firstgid="1" source="env.tsx"/>
 <tileset firstgid="52" source="weapons.tsx"/>
 <layer id="1" name="floor" width="22" height="22">
  <data encoding="csv">
51,51,51,51,51,51,51,51,51,51,51,51,51,51,51,51,51,51,51,51,51,51,
51,31,31,31,31,31,27,27,27,27,27,27,27,27,27,27,27,27,27,27,27,51,
51,31,30,2684354590,3221225502,31,27,27,27,27,27,27,27,27,27,27,27,27,27,27,27,51,
51,31,1610612766,28,1610612766,31,27,27,27,27,27,27,27,27,27,27,27,27,27,27,27,51,
51,31,3221225502,2684354590,30,31,27,27,27,27,27,27,27,27,27,27,27,27,27,27,27,51,
51,31,31,31,31,31,27,27,27,27,27,27,27,27,27,27,27,27,27,27,27,51,
51,27,27,27,27,27,27,27,27,27,27,27,27,27,27,27,27,27,27,27,27,51,
51,27,27,27,27,27,27,27,27,27,27,27,27,27,27,27,27,27,27,27,27,51,
51,27,27,27,27,27,27,27,27,27,27,27,27,27,27,27,27,27,27,27,27,51,
51,27,27,27,27,27,27,27,27,27,27,27,27,27,27,27,27,27,27,27,27,51,
51,27,27,27,27,27,27,27,27,27,27,27,27,27,27,27,27,27,27,27,27,51,
51,27,27,27,27,27,27,27,27,27,27,27,27,27,27,27,27,27,27,27,27,51,
51,27,27,27,27,27,27,27,27,27,27,27,27,27,27,27,27,27,27,27,27,51,
51,27,27,27,27,27,27,27,27,27,27,27,27,27,27,27,27,27,27,27,27,51,
51,27,27,27,27,27,27,27,27,27,27,27,27,27,27,27,27,27,27,27,27,51,
51,27,27,27,27,27,27,27,27,27,27,27,27,27,27,27,27,27,27,27,27,51,
51,27,27,27,27,27,27,27,27,27,27,27,27,27,27,27,27,27,27,27,27,51,
51,27,27,27,27,27,27,27,27,27,27,27,27,27,27,27,27,27,27,27,27,51,
51,27,27,27,27,27,27,27,27,27,27,27,27,27,27,27,27,27,27,27,27,51,
51,27,27,27,27,27,27,27,27,27,27,27,27,27,27,27,27,27,27,27,27,51,
51,27,27,27,27,27,27,27,27,27,27,27,27,27,27,27,27,27,27,27,27,51,
51,51,51,51,51,51,51,51,51,51,51,51,51,51,51,51,51,51,51,51,51,51
</data>
 </layer>
 <layer id="2" name="map_border_walls" width="22" height="22">
  <data encoding="csv">
3221225489,3221225512,3221225512,3221225512,3221225512,3221225512,3221225512,3221225512,3221225512,3221225512,0,3221225512,3221225512,3221225512,3221225512,3221225512,3221225512,3221225512,3221225512,3221225512,3221225512,1610612753,
2684354600,0,0,0,0,0,0,0,0,0,0,0,0,0,0,0,0,0,0,0,0,1610612776,
2684354600,0,0,0,0,0,0,0,0,0,0,0,0,0,0,0,0,0,0,0,0,1610612776,
2684354600,0,0,0,0,0,0,0,0,0,0,0,0,0,0,0,0,0,0,0,0,1610612776,
2684354600,0,0,0,0,0,0,0,0,0,0,0,0,0,0,0,0,0,0,0,0,1610612776,
2684354600,0,0,0,0,0,0,0,0,0,0,0,0,0,0,0,0,0,0,0,0,1610612776,
2684354600,0,0,0,0,0,0,0,0,0,0,0,0,0,0,0,0,0,0,0,0,1610612776,
2684354600,0,0,0,0,0,0,0,0,0,0,0,0,0,0,0,0,0,0,0,0,1610612776,
2684354600,0,0,0,0,0,0,0,0,0,0,0,0,0,0,0,0,0,0,0,0,1610612776,
2684354600,0,0,0,0,0,0,0,0,0,0,0,0,0,0,0,0,0,0,0,0,1610612776,
0,0,0,0,0,0,0,0,0,0,0,0,0,0,0,0,0,0,0,0,0,0,
2684354600,0,0,0,0,0,0,0,0,0,0,0,0,0,0,0,0,0,0,0,0,1610612776,
2684354600,0,0,0,0,0,0,0,0,0,0,0,0,0,0,0,0,0,0,0,0,1610612776,
2684354600,0,0,0,0,0,0,0,0,0,0,0,0,0,0,0,0,0,0,0,0,1610612776,
2684354600,0,0,0,0,0,0,0,0,0,0,0,0,0,0,0,0,0,0,0,0,1610612776,
2684354600,0,0,0,0,0,0,0,0,0,0,0,0,0,0,0,0,0,0,0,0,1610612776,
2684354600,0,0,0,0,0,0,0,0,0,0,0,0,0,0,0,0,0,0,0,0,1610612776,
2684354600,0,0,0,0,0,0,0,0,0,0,0,0,0,0,0,0,0,0,0,0,1610612776,
2684354600,0,0,0,0,0,0,0,0,0,0,0,0,0,0,0,0,0,0,0,0,1610612776,
2684354600,0,0,0,0,0,0,0,0,0,0,0,0,0,0,0,0,0,0,0,0,1610612776,
2684354600,0,0,0,0,0,0,0,0,0,0,0,0,0,0,0,0,0,0,0,0,1610612776,
2684354577,40,40,40,40,40,40,40,40,40,0,40,40,40,40,40,40,40,40,40,40,17
</data>
 </layer>
 <layer id="3" name="interactive_layer" width="22" height="22">
  <data encoding="csv">
0,0,0,0,0,0,0,0,0,0,0,0,0,0,0,0,0,0,0,0,0,0,
0,52,53,55,56,57,1610612779,0,0,0,12,0,0,1610612776,0,0,0,0,0,0,0,0,
0,58,59,60,61,62,1610612779,0,0,0,0,0,45,17,6,0,0,0,6,0,0,0,
0,63,64,65,66,67,1610612779,0,0,0,0,46,536870929,0,0,0,36,0,0,0,0,0,
0,0,0,0,0,0,1610612779,0,0,0,0,1610612776,0,0,0,38,0,38,0,0,0,0,
0,0,3221225478,3221225478,3221225478,0,1610612784,0,0,0,0,1610612776,0,0,37,0,37,0,37,0,0,0,
0,2147483691,2147483691,2147483691,2147483691,48,17,0,0,0,0,0,0,0,0,0,0,0,0,0,0,0,
0,0,0,0,0,0,0,0,0,0,0,1610612776,0,35,0,35,0,35,0,35,0,0,
0,0,0,0,0,0,0,0,0,0,0,1610612778,3221225521,0,3221225521,0,3221225521,0,3221225521,0,1073741871,0,
0,0,0,0,0,0,0,0,0,0,0,0,0,0,0,0,0,0,0,0,0,0,
0,1610612747,0,0,0,0,0,0,0,0,46,43,43,43,43,43,43,43,2684354602,0,2684354571,0,
0,0,0,0,0,0,0,0,0,2147483695,14,46,1610612751,0,0,0,0,0,2684354603,0,0,0,
0,0,9,0,9,0,9,0,9,2684354603,0,1610612779,1610612782,3221225515,3221225515,1073741838,0,0,2684354603,0,0,0,
0,0,0,7,0,7,0,7,0,2147483662,43,17,0,3221225486,3221225512,536870928,0,0,2684354603,0,0,0,
0,0,9,0,9,0,9,0,9,0,0,0,0,2684354576,1610612753,0,0,0,2684354603,0,0,0,
0,0,0,7,0,7,0,7,0,0,0,3758096399,41,43,17,0,0,0,2684354603,0,0,0,
0,0,9,0,9,0,9,0,9,0,0,2684354574,17,0,3221225487,1073741838,3221225486,3221225520,3221225518,0,0,0,
0,0,0,0,0,0,0,0,0,0,0,49,49,49,14,1610612781,3221225518,1,0,0,0,0,
0,0,8,0,39,0,8,0,39,0,0,0,0,0,0,0,1,1,1,0,0,0,
0,21,0,21,8,21,0,21,0,21,0,0,0,0,0,2,2,2,2,2,0,0,
0,0,8,3,39,3,8,0,39,0,3221225484,0,0,0,3,3,3,3,3,3,3,0,
0,0,0,0,0,0,0,0,0,0,0,0,0,0,0,0,0,0,0,0,0,0
</data>
 </layer>
 <objectgroup id="5" name="spawns">
  <object id="1" name="Player_spawn" x="960" y="832"/>
  <object id="2" name="Player_spawn" x="1856" y="832"/>
  <object id="3" name="Player_spawn" x="960" y="1856"/>
  <object id="4" name="Player_spawn" x="1856" y="1856"/>
  <object id="5" name="Player_spawn" x="1344" y="1344"/>
  <object id="6" name="Player_spawn" x="2368" y="2368"/>
  <object id="7" name="Player_spawn" x="448" y="1344"/>
  <object id="8" name="Player_spawn" x="2368" y="1344"/>
 </objectgroup>
</map>
